static/selectmenu.svg

<svg fill="none" height="12" viewBox="0 0 6 12" width="6" xmlns="http://www.w3.org/2000/svg"><g fill="#000"><path d="m.703125 7.91406 2.296875 2.29684 2.29688-2.29684.70312.70313-3 3.00001-3-3.00001z"/><path d="m.703125 3.71094-.703125-.70313 3-2.9999975 3 2.9999975-.70312.70313-2.29688-2.29688z"/></g></svg>

<svg width="6" height="12" viewBox="0 0 6 12" fill="none" xmlns="http://www.w3.org/2000/svg">
<path d="M0.703125 7.91406L3 10.2109L5.29688 7.91406L6 8.61719L3 11.6172L0 8.61719L0.703125 7.91406Z" fill="black"/>
<path d="M0.703125 3.71094L0 3.00781L3 0.0078125L6 3.00781L5.29688 3.71094L3 1.41406L0.703125 3.71094Z" fill="black"/>
</svg>
